X:520
T:The Bush on the Hill
M:C
L:1/8
B:O'Neill's 520
N:"Moderate" "collected by F. O'Neill"
Z:Transcribed by Dave Wooldridge
K:G
G \
| (dBAG) (g2 fe) | (dBAG) (B2 AB) | (cdef) (gfed) | f3 e d2 z G |
d2 (cB) e3 d | (cBAG) A3 B | (cdef) (gdec) | B2 (A>G) G2 z ||
G \
| g>acb g(fe)d | B>AB>c B3 d | e(fg)a g(fe)d | B(dg)f e2 ge |
(dB)(AG) B(dg)e | (dB)(AG) {B}A3 B | (c>Bcd) ~e>fHge | dBA>G G3 ||


